static/img/kroki/06b0c5b187411cec89ad9c7ba8324835.svg

<?xml version="1.0" encoding="us-ascii" standalone="no"?><svg xmlns="http://www.w3.org/2000/svg" xmlns:xlink="http://www.w3.org/1999/xlink" contentStyleType="text/css" height="1033px" preserveAspectRatio="none" style="width:459px;height:1033px;" version="1.1" viewBox="0 0 459 1033" width="459px" zoomAndPan="magnify"><defs/><g><!--class azure_cosmos_db_restorable_gremlin_database--><g id="elem_azure_cosmos_db_restorable_gremlin_database"><rect codeLine="23" fill="#3D176E" height="74.0859" id="azure_cosmos_db_restorable_gremlin_database" rx="2.5" ry="2.5" style="stroke:#000D19;stroke-width:0.5;" width="445" x="7" y="660.14"/><ellipse cx="25.15" cy="680.0345" fill="#ADD1B2" rx="11" ry="11" style="stroke:#181818;stroke-width:1.0;"/><path d="M28.1188,685.6752 Q27.5406,685.972 26.9,686.1127 Q26.2594,686.2689 25.5563,686.2689 Q23.0563,686.2689 21.7281,684.6283 Q20.4156,682.972 20.4156,679.847 Q20.4156,676.722 21.7281,675.0658 Q23.0563,673.4095 25.5563,673.4095 Q26.2594,673.4095 26.9,673.5658 Q27.5563,673.722 28.1188,674.0189 L28.1188,676.7377 Q27.4938,676.1595 26.9,675.8939 Q26.3063,675.6127 25.6813,675.6127 Q24.3375,675.6127 23.65,676.6908 Q22.9625,677.7533 22.9625,679.847 Q22.9625,681.9408 23.65,683.0189 Q24.3375,684.0814 25.6813,684.0814 Q26.3063,684.0814 26.9,683.8158 Q27.4938,683.5345 28.1188,682.9564 L28.1188,685.6752 Z " fill="#000000"/><text fill="#D9B8FF" font-family="Helvetica" font-size="17" lengthAdjust="spacing" textLength="396" x="44.85" y="685.9198">azure_cosmos_db_restorable_gremlin_database</text><line style="stroke:#000D19;stroke-width:0.5;" x1="8" x2="451" y1="699.9291" y2="699.9291"/><text fill="#D9B8FF" font-family="sans-serif" font-size="14" font-weight="bold" lengthAdjust="spacing" textLength="227" x="18" y="721.9242">restorable_gremlin_database</text><text fill="#D9B8FF" font-family="sans-serif" font-size="14" lengthAdjust="spacing" textLength="196" x="245" y="721.9242">: azure_restorable_database</text></g><!--class azure_restorable_database--><g id="elem_azure_restorable_database"><rect codeLine="26" fill="#3D176E" height="231.8672" id="azure_restorable_database" rx="2.5" ry="2.5" style="stroke:#000D19;stroke-width:0.5;" width="265" x="97" y="794.22"/><ellipse cx="112" cy="814.1145" fill="#ADD1B2" rx="11" ry="11" style="stroke:#181818;stroke-width:1.0;"/><path d="M114.9688,819.7552 Q114.3906,820.052 113.75,820.1927 Q113.1094,820.3489 112.4063,820.3489 Q109.9063,820.3489 108.5781,818.7083 Q107.2656,817.052 107.2656,813.927 Q107.2656,810.802 108.5781,809.1458 Q109.9063,807.4895 112.4063,807.4895 Q113.1094,807.4895 113.75,807.6458 Q114.4063,807.802 114.9688,808.0989 L114.9688,810.8177 Q114.3438,810.2395 113.75,809.9739 Q113.1563,809.6927 112.5313,809.6927 Q111.1875,809.6927 110.5,810.7708 Q109.8125,811.8333 109.8125,813.927 Q109.8125,816.0208 110.5,817.0989 Q111.1875,818.1614 112.5313,818.1614 Q113.1563,818.1614 113.75,817.8958 Q114.3438,817.6145 114.9688,817.0364 L114.9688,819.7552 Z " fill="#000000"/><text fill="#D9B8FF" font-family="Helvetica" font-size="17" lengthAdjust="spacing" textLength="223" x="131" y="819.9998">azure_restorable_database</text><line style="stroke:#000D19;stroke-width:0.5;" x1="98" x2="361" y1="834.0091" y2="834.0091"/><text fill="#D9B8FF" font-family="sans-serif" font-size="14" font-weight="bold" lengthAdjust="spacing" textLength="105" x="108" y="856.0042">can_undelete</text><text fill="#D9B8FF" font-family="sans-serif" font-size="14" lengthAdjust="spacing" textLength="48" x="213" y="856.0042">: string</text><text fill="#D9B8FF" font-family="sans-serif" font-size="14" font-weight="bold" lengthAdjust="spacing" textLength="167" x="108" y="882.3011">can_undelete_reason</text><text fill="#D9B8FF" font-family="sans-serif" font-size="14" lengthAdjust="spacing" textLength="48" x="275" y="882.3011">: string</text><text fill="#D9B8FF" font-family="sans-serif" font-size="14" font-weight="bold" lengthAdjust="spacing" textLength="134" x="108" y="908.5979">event_timestamp</text><text fill="#D9B8FF" font-family="sans-serif" font-size="14" lengthAdjust="spacing" textLength="48" x="242" y="908.5979">: string</text><text fill="#D9B8FF" font-family="sans-serif" font-size="14" font-weight="bold" lengthAdjust="spacing" textLength="118" x="108" y="934.8948">operation_type</text><text fill="#D9B8FF" font-family="sans-serif" font-size="14" lengthAdjust="spacing" textLength="48" x="226" y="934.8948">: string</text><text fill="#D9B8FF" font-family="sans-serif" font-size="14" font-weight="bold" lengthAdjust="spacing" textLength="72" x="108" y="961.1917">owner_id</text><text fill="#D9B8FF" font-family="sans-serif" font-size="14" lengthAdjust="spacing" textLength="48" x="180" y="961.1917">: string</text><text fill="#D9B8FF" font-family="sans-serif" font-size="14" font-weight="bold" lengthAdjust="spacing" textLength="151" x="108" y="987.4886">owner_resource_id</text><text fill="#D9B8FF" font-family="sans-serif" font-size="14" lengthAdjust="spacing" textLength="48" x="259" y="987.4886">: string</text><text fill="#D9B8FF" font-family="sans-serif" font-size="14" font-weight="bold" lengthAdjust="spacing" textLength="21" x="108" y="1013.7854">rid</text><text fill="#D9B8FF" font-family="sans-serif" font-size="14" lengthAdjust="spacing" textLength="48" x="129" y="1013.7854">: string</text></g><!--class microsoft_resource--><g id="elem_microsoft_resource"><rect codeLine="35" fill="#3D176E" height="100.3828" id="microsoft_resource" rx="2.5" ry="2.5" style="stroke:#000D19;stroke-width:0.5;" width="214" x="122.5" y="438.75"/><ellipse cx="143.8" cy="458.6445" fill="#ADD1B2" rx="11" ry="11" style="stroke:#181818;stroke-width:1.0;"/><path d="M146.7688,464.2852 Q146.1906,464.582 145.55,464.7227 Q144.9094,464.8789 144.2063,464.8789 Q141.7063,464.8789 140.3781,463.2383 Q139.0656,461.582 139.0656,458.457 Q139.0656,455.332 140.3781,453.6758 Q141.7063,452.0195 144.2063,452.0195 Q144.9094,452.0195 145.55,452.1758 Q146.2063,452.332 146.7688,452.6289 L146.7688,455.3477 Q146.1438,454.7695 145.55,454.5039 Q144.9563,454.2227 144.3313,454.2227 Q142.9875,454.2227 142.3,455.3008 Q141.6125,456.3633 141.6125,458.457 Q141.6125,460.5508 142.3,461.6289 Q142.9875,462.6914 144.3313,462.6914 Q144.9563,462.6914 145.55,462.4258 Q146.1438,462.1445 146.7688,461.5664 L146.7688,464.2852 Z " fill="#000000"/><text fill="#D9B8FF" font-family="Helvetica" font-size="17" lengthAdjust="spacing" textLength="158" x="164.2" y="464.5298">microsoft_resource</text><line style="stroke:#000D19;stroke-width:0.5;" x1="123.5" x2="335.5" y1="478.5391" y2="478.5391"/><text fill="#D9B8FF" font-family="sans-serif" font-size="14" font-weight="bold" lengthAdjust="spacing" textLength="35" x="133.5" y="500.5342">etag</text><text fill="#D9B8FF" font-family="sans-serif" font-size="14" lengthAdjust="spacing" textLength="48" x="168.5" y="500.5342">: string</text><text fill="#D9B8FF" font-family="sans-serif" font-size="14" font-weight="bold" lengthAdjust="spacing" textLength="144" x="133.5" y="526.8311">provisioning_state</text><text fill="#D9B8FF" font-family="sans-serif" font-size="14" lengthAdjust="spacing" textLength="48" x="277.5" y="526.8311">: string</text></g><!--class resource--><g id="elem_resource"><rect codeLine="39" fill="#3D176E" height="310.7578" id="resource" rx="2.5" ry="2.5" style="stroke:#000D19;stroke-width:0.5;" width="227" x="116" y="7"/><ellipse cx="184.75" cy="26.8945" fill="#ADD1B2" rx="11" ry="11" style="stroke:#181818;stroke-width:1.0;"/><path d="M187.7188,32.5352 Q187.1406,32.832 186.5,32.9727 Q185.8594,33.1289 185.1563,33.1289 Q182.6563,33.1289 181.3281,31.4883 Q180.0156,29.832 180.0156,26.707 Q180.0156,23.582 181.3281,21.9258 Q182.6563,20.2695 185.1563,20.2695 Q185.8594,20.2695 186.5,20.4258 Q187.1563,20.582 187.7188,20.8789 L187.7188,23.5977 Q187.0938,23.0195 186.5,22.7539 Q185.9063,22.4727 185.2813,22.4727 Q183.9375,22.4727 183.25,23.5508 Q182.5625,24.6133 182.5625,26.707 Q182.5625,28.8008 183.25,29.8789 Q183.9375,30.9414 185.2813,30.9414 Q185.9063,30.9414 186.5,30.6758 Q187.0938,30.3945 187.7188,29.8164 L187.7188,32.5352 Z " fill="#000000"/><text fill="#D9B8FF" font-family="Helvetica" font-size="17" lengthAdjust="spacing" textLength="71" x="210.25" y="32.7798">resource</text><line style="stroke:#000D19;stroke-width:0.5;" x1="117" x2="342" y1="46.7891" y2="46.7891"/><text fill="#D9B8FF" font-family="sans-serif" font-size="14" font-weight="bold" lengthAdjust="spacing" textLength="29" x="127" y="68.7842">age</text><text fill="#D9B8FF" font-family="sans-serif" font-size="14" lengthAdjust="spacing" textLength="66" x="156" y="68.7842">: duration</text><text fill="#D9B8FF" font-family="sans-serif" font-size="14" font-weight="bold" lengthAdjust="spacing" textLength="43" x="127" y="95.0811">atime</text><text fill="#D9B8FF" font-family="sans-serif" font-size="14" lengthAdjust="spacing" textLength="70" x="170" y="95.0811">: datetime</text><text fill="#D9B8FF" font-family="sans-serif" font-size="14" font-weight="bold" lengthAdjust="spacing" textLength="43" x="127" y="121.3779">ctime</text><text fill="#D9B8FF" font-family="sans-serif" font-size="14" lengthAdjust="spacing" textLength="70" x="170" y="121.3779">: datetime</text><text fill="#D9B8FF" font-family="sans-serif" font-size="14" font-weight="bold" lengthAdjust="spacing" textLength="14" x="127" y="147.6748">id</text><text fill="#D9B8FF" font-family="sans-serif" font-size="14" lengthAdjust="spacing" textLength="48" x="141" y="147.6748">: string</text><text fill="#D9B8FF" font-family="sans-serif" font-size="14" font-weight="bold" lengthAdjust="spacing" textLength="33" x="127" y="173.9717">kind</text><text fill="#D9B8FF" font-family="sans-serif" font-size="14" lengthAdjust="spacing" textLength="48" x="160" y="173.9717">: string</text><text fill="#D9B8FF" font-family="sans-serif" font-size="14" font-weight="bold" lengthAdjust="spacing" textLength="90" x="127" y="200.2686">last_access</text><text fill="#D9B8FF" font-family="sans-serif" font-size="14" lengthAdjust="spacing" textLength="66" x="217" y="200.2686">: duration</text><text fill="#D9B8FF" font-family="sans-serif" font-size="14" font-weight="bold" lengthAdjust="spacing" textLength="90" x="127" y="226.5654">last_update</text><text fill="#D9B8FF" font-family="sans-serif" font-size="14" lengthAdjust="spacing" textLength="66" x="217" y="226.5654">: duration</text><text fill="#D9B8FF" font-family="sans-serif" font-size="14" font-weight="bold" lengthAdjust="spacing" textLength="48" x="127" y="252.8623">mtime</text><text fill="#D9B8FF" font-family="sans-serif" font-size="14" lengthAdjust="spacing" textLength="70" x="175" y="252.8623">: datetime</text><text fill="#D9B8FF" font-family="sans-serif" font-size="14" font-weight="bold" lengthAdjust="spacing" textLength="43" x="127" y="279.1592">name</text><text fill="#D9B8FF" font-family="sans-serif" font-size="14" lengthAdjust="spacing" textLength="48" x="170" y="279.1592">: string</text><text fill="#D9B8FF" font-family="sans-serif" font-size="14" font-weight="bold" lengthAdjust="spacing" textLength="34" x="127" y="305.4561">tags</text><text fill="#D9B8FF" font-family="sans-serif" font-size="14" lengthAdjust="spacing" textLength="171" x="161" y="305.4561">: dictionary[string, string]</text></g><!--link azure_cosmos_db_restorable_gremlin_database to azure_restorable_database--><g id="link_azure_cosmos_db_restorable_gremlin_database_azure_restorable_database"><path codeLine="51" d="M229.5,734.45 C229.5,751.3 229.5,766.36 229.5,787.97 " fill="none" id="azure_cosmos_db_restorable_gremlin_database-to-azure_restorable_database" style="stroke:#FFAF37;stroke-width:2.0;"/><polygon fill="#FFAF37" points="229.5,793.97,233.5,784.97,229.5,788.97,225.5,784.97,229.5,793.97" style="stroke:#FFAF37;stroke-width:2.0;"/></g><!--reverse link microsoft_resource to azure_cosmos_db_restorable_gremlin_database--><g id="link_microsoft_resource_azure_cosmos_db_restorable_gremlin_database"><path codeLine="52" d="M229.5,557.61 C229.5,594.67 229.5,626.48 229.5,659.87 " fill="none" id="microsoft_resource-backto-azure_cosmos_db_restorable_gremlin_database" style="stroke:#FFAF37;stroke-width:2.0;"/><polygon fill="none" points="229.5,539.61,223.5,557.61,235.5,557.61,229.5,539.61" style="stroke:#FFAF37;stroke-width:2.0;"/></g><!--reverse link resource to microsoft_resource--><g id="link_resource_microsoft_resource"><path codeLine="53" d="M229.5,336.06 C229.5,379.65 229.5,405.98 229.5,438.42 " fill="none" id="resource-backto-microsoft_resource" style="stroke:#FFAF37;stroke-width:2.0;"/><polygon fill="none" points="229.5,318.06,223.5,336.06,235.5,336.06,229.5,318.06" style="stroke:#FFAF37;stroke-width:2.0;"/></g><!--SRC=[bLHHQzim47xthn3qBIoGh6nfnXYqWRAzbB7kRGnnbiwEY2MPavoGRllla-saMBARqZVxlk- - -xxpuQsIo53N_iWqwXp9PMwdJ0q4cjqIsSF6LfROLL50SRrAmNjh_Ak41z38lcArHwy4f8oVMoLs1frZxmVG7OXTIROnifVt1CO528qVi3OLE7VhFQcyyJWm8zVvJL6ap5JqwbekLnznHBCaaKwKnM8Xb-kKykgeYxcV6O_g2TbokBG7wt5aSpIYOrrqsJ869aT1p_YB7h-3bCgKxCEWzgFtH0OfgZzkGTf3oowWSiCnpYEXzSSQDwDKkBwHnMgI_EqbSYRQrJ5uQWYvi4vRnsNE2Pst17c5l2JKbJ9SWeSS7B8_sMns0P_DFfta1gGpcFsB1aumEda1XWUhMA7lz5muI5CcGEW6Pqs4upxSC_TA1s7GTOJP6WcyieQt6ucXG_W2NCc9Oh1e6nAOeXIzdsDf9SWwM_ZdlYuFUYYZxfhiNhdW9RpoO3MAUHQB9A3iABBfCxILDcPN2-tjSxkVYLfYF5n7N0YpF0SXmXyZcT0XJIrFzWQ8dfXZGCTR3Q5xHINQDg3ZhnvxT-By3b7VSddp-PSBfpMn-yz_v_FvMuuxIrh7cjb_]--></g></svg>

<svg xmlns="http://www.w3.org/2000/svg" width="459" height="1033" viewBox="0 0 459 1033"><rect width="445" height="74.086" x="7" y="660.14" fill="#3D176E" rx="2.5" ry="2.5" style="stroke:#000d19;stroke-width:.5"/><circle cx="25.15" cy="680.034" r="11" fill="#ADD1B2" style="stroke:#181818;stroke-width:1"/><path d="M28.119 685.675q-.578.297-1.219.438-.64.156-1.344.156-2.5 0-3.828-1.64-1.312-1.657-1.312-4.782t1.312-4.781q1.328-1.657 3.828-1.657.703 0 1.344.157.656.156 1.219.453v2.719q-.625-.579-1.219-.844-.594-.281-1.219-.281-1.344 0-2.031 1.078-.687 1.062-.687 3.156t.687 3.172q.688 1.062 2.031 1.062.625 0 1.219-.265.594-.282 1.219-.86z"/><text x="44.85" y="685.92" fill="#D9B8FF" font-family="Helvetica" font-size="17" textLength="396">azure_cosmos_db_restorable_gremlin_database</text><path d="M8 699.929h443" style="stroke:#000d19;stroke-width:.5"/><text x="18" y="721.924" fill="#D9B8FF" font-family="sans-serif" font-size="14" font-weight="bold" textLength="227">restorable_gremlin_database</text><text x="245" y="721.924" fill="#D9B8FF" font-family="sans-serif" font-size="14" textLength="196">: azure_restorable_database</text><rect width="265" height="231.867" x="97" y="794.22" fill="#3D176E" rx="2.5" ry="2.5" style="stroke:#000d19;stroke-width:.5"/><circle cx="112" cy="814.115" r="11" fill="#ADD1B2" style="stroke:#181818;stroke-width:1"/><path d="M114.969 819.755q-.578.297-1.219.438-.64.156-1.344.156-2.5 0-3.828-1.64-1.312-1.657-1.312-4.782t1.312-4.781q1.328-1.656 3.828-1.656.703 0 1.344.156.656.156 1.219.453v2.719q-.625-.578-1.219-.844-.594-.281-1.219-.281-1.344 0-2.031 1.078-.687 1.062-.687 3.156t.687 3.172q.688 1.062 2.031 1.062.625 0 1.219-.265.594-.281 1.219-.86z"/><text x="131" y="820" fill="#D9B8FF" font-family="Helvetica" font-size="17" textLength="223">azure_restorable_database</text><path d="M98 834.009h263" style="stroke:#000d19;stroke-width:.5"/><text x="108" y="856.004" fill="#D9B8FF" font-family="sans-serif" font-size="14" font-weight="bold" textLength="105">can_undelete</text><text x="213" y="856.004" fill="#D9B8FF" font-family="sans-serif" font-size="14" textLength="48">: string</text><text x="108" y="882.301" fill="#D9B8FF" font-family="sans-serif" font-size="14" font-weight="bold" textLength="167">can_undelete_reason</text><text x="275" y="882.301" fill="#D9B8FF" font-family="sans-serif" font-size="14" textLength="48">: string</text><text x="108" y="908.598" fill="#D9B8FF" font-family="sans-serif" font-size="14" font-weight="bold" textLength="134">event_timestamp</text><text x="242" y="908.598" fill="#D9B8FF" font-family="sans-serif" font-size="14" textLength="48">: string</text><text x="108" y="934.895" fill="#D9B8FF" font-family="sans-serif" font-size="14" font-weight="bold" textLength="118">operation_type</text><text x="226" y="934.895" fill="#D9B8FF" font-family="sans-serif" font-size="14" textLength="48">: string</text><text x="108" y="961.192" fill="#D9B8FF" font-family="sans-serif" font-size="14" font-weight="bold" textLength="72">owner_id</text><text x="180" y="961.192" fill="#D9B8FF" font-family="sans-serif" font-size="14" textLength="48">: string</text><text x="108" y="987.489" fill="#D9B8FF" font-family="sans-serif" font-size="14" font-weight="bold" textLength="151">owner_resource_id</text><text x="259" y="987.489" fill="#D9B8FF" font-family="sans-serif" font-size="14" textLength="48">: string</text><text x="108" y="1013.785" fill="#D9B8FF" font-family="sans-serif" font-size="14" font-weight="bold" textLength="21">rid</text><text x="129" y="1013.785" fill="#D9B8FF" font-family="sans-serif" font-size="14" textLength="48">: string</text><rect width="214" height="100.383" x="122.5" y="438.75" fill="#3D176E" rx="2.5" ry="2.5" style="stroke:#000d19;stroke-width:.5"/><circle cx="143.8" cy="458.644" r="11" fill="#ADD1B2" style="stroke:#181818;stroke-width:1"/><path d="M146.769 464.285q-.578.297-1.219.438-.64.156-1.344.156-2.5 0-3.828-1.64-1.312-1.657-1.312-4.782t1.312-4.781q1.328-1.656 3.828-1.656.703 0 1.344.156.656.156 1.219.453v2.719q-.625-.579-1.219-.844-.594-.281-1.219-.281-1.343 0-2.031 1.078-.687 1.062-.687 3.156t.687 3.172q.688 1.062 2.031 1.062.625 0 1.219-.265.594-.281 1.219-.86z"/><text x="164.2" y="464.53" fill="#D9B8FF" font-family="Helvetica" font-size="17" textLength="158">microsoft_resource</text><path d="M123.5 478.539h212" style="stroke:#000d19;stroke-width:.5"/><text x="133.5" y="500.534" fill="#D9B8FF" font-family="sans-serif" font-size="14" font-weight="bold" textLength="35">etag</text><text x="168.5" y="500.534" fill="#D9B8FF" font-family="sans-serif" font-size="14" textLength="48">: string</text><text x="133.5" y="526.831" fill="#D9B8FF" font-family="sans-serif" font-size="14" font-weight="bold" textLength="144">provisioning_state</text><text x="277.5" y="526.831" fill="#D9B8FF" font-family="sans-serif" font-size="14" textLength="48">: string</text><rect width="227" height="310.758" x="116" y="7" fill="#3D176E" rx="2.5" ry="2.5" style="stroke:#000d19;stroke-width:.5"/><circle cx="184.75" cy="26.895" r="11" fill="#ADD1B2" style="stroke:#181818;stroke-width:1"/><path d="M187.719 32.535q-.578.297-1.219.438-.64.156-1.344.156-2.5 0-3.828-1.64-1.312-1.657-1.312-4.782t1.312-4.781q1.328-1.656 3.828-1.656.703 0 1.344.156.656.156 1.219.453v2.719q-.625-.578-1.219-.844-.594-.281-1.219-.281-1.344 0-2.031 1.078-.687 1.062-.687 3.156t.687 3.172q.688 1.062 2.031 1.062.625 0 1.219-.265.594-.281 1.219-.86z"/><text x="210.25" y="32.78" fill="#D9B8FF" font-family="Helvetica" font-size="17" textLength="71">resource</text><path d="M117 46.789h225" style="stroke:#000d19;stroke-width:.5"/><text x="127" y="68.784" fill="#D9B8FF" font-family="sans-serif" font-size="14" font-weight="bold" textLength="29">age</text><text x="156" y="68.784" fill="#D9B8FF" font-family="sans-serif" font-size="14" textLength="66">: duration</text><text x="127" y="95.081" fill="#D9B8FF" font-family="sans-serif" font-size="14" font-weight="bold" textLength="43">atime</text><text x="170" y="95.081" fill="#D9B8FF" font-family="sans-serif" font-size="14" textLength="70">: datetime</text><text x="127" y="121.378" fill="#D9B8FF" font-family="sans-serif" font-size="14" font-weight="bold" textLength="43">ctime</text><text x="170" y="121.378" fill="#D9B8FF" font-family="sans-serif" font-size="14" textLength="70">: datetime</text><text x="127" y="147.675" fill="#D9B8FF" font-family="sans-serif" font-size="14" font-weight="bold" textLength="14">id</text><text x="141" y="147.675" fill="#D9B8FF" font-family="sans-serif" font-size="14" textLength="48">: string</text><text x="127" y="173.972" fill="#D9B8FF" font-family="sans-serif" font-size="14" font-weight="bold" textLength="33">kind</text><text x="160" y="173.972" fill="#D9B8FF" font-family="sans-serif" font-size="14" textLength="48">: string</text><text x="127" y="200.269" fill="#D9B8FF" font-family="sans-serif" font-size="14" font-weight="bold" textLength="90">last_access</text><text x="217" y="200.269" fill="#D9B8FF" font-family="sans-serif" font-size="14" textLength="66">: duration</text><text x="127" y="226.565" fill="#D9B8FF" font-family="sans-serif" font-size="14" font-weight="bold" textLength="90">last_update</text><text x="217" y="226.565" fill="#D9B8FF" font-family="sans-serif" font-size="14" textLength="66">: duration</text><text x="127" y="252.862" fill="#D9B8FF" font-family="sans-serif" font-size="14" font-weight="bold" textLength="48">mtime</text><text x="175" y="252.862" fill="#D9B8FF" font-family="sans-serif" font-size="14" textLength="70">: datetime</text><text x="127" y="279.159" fill="#D9B8FF" font-family="sans-serif" font-size="14" font-weight="bold" textLength="43">name</text><text x="170" y="279.159" fill="#D9B8FF" font-family="sans-serif" font-size="14" textLength="48">: string</text><text x="127" y="305.456" fill="#D9B8FF" font-family="sans-serif" font-size="14" font-weight="bold" textLength="34">tags</text><text x="161" y="305.456" fill="#D9B8FF" font-family="sans-serif" font-size="14" textLength="171">: dictionary[string, string]</text><path fill="none" d="M229.5 734.45v53.52" style="stroke:#ffaf37;stroke-width:2"/><path fill="#FFAF37" d="m229.5 793.97 4-9-4 4-4-4z" style="stroke:#ffaf37;stroke-width:2"/><path fill="none" d="M229.5 557.61v102.26m0-120.26-6 18h12zm0-203.55v102.36m0-120.36-6 18h12z" style="stroke:#ffaf37;stroke-width:2"/></svg>
